configs/network-icons/iota-evm-icon-light.svg

<svg width="30" height="30" viewBox="0 0 30 30" fill="none" xmlns="http://www.w3.org/2000/svg">
<g clip-path="url(#clip0_11324_7557)">
<path fill-rule="evenodd" clip-rule="evenodd" d="M23.5491 2.72395C23.5491 3.67601 22.7753 4.44789 21.8207 4.44789C20.8662 4.44789 20.0923 3.67601 20.0923 2.72395C20.0923 1.77181 20.8662 1 21.8207 1C22.7753 1 23.5491 1.77181 23.5491 2.72395ZM25.4936 27.0749C25.4936 28.0271 24.7198 28.7989 23.7652 28.7989C22.8106 28.7989 22.0368 28.0271 22.0368 27.0749C22.0368 26.1228 22.8106 25.351 23.7652 25.351C24.7198 25.351 25.4936 26.1228 25.4936 27.0749ZM22.3147 8.75771C23.1158 8.75771 23.7653 8.10994 23.7653 7.31088C23.7653 6.51176 23.1158 5.86399 22.3147 5.86399C21.5135 5.86399 20.864 6.51176 20.864 7.31088C20.864 8.10994 21.5135 8.75771 22.3147 8.75771ZM27.6235 7.86501C27.6235 8.66407 26.9741 9.3119 26.1729 9.3119C25.3718 9.3119 24.7223 8.66407 24.7223 7.86501C24.7223 7.06588 25.3718 6.41812 26.1729 6.41812C26.9741 6.41812 27.6235 7.06588 27.6235 7.86501ZM21.8208 12.4212C22.5027 12.4212 23.0554 11.8699 23.0554 11.1898C23.0554 10.5097 22.5027 9.95844 21.8208 9.95844C21.139 9.95844 20.5863 10.5097 20.5863 11.1898C20.5863 11.8699 21.139 12.4212 21.8208 12.4212ZM26.9137 11.7132C26.9137 12.3933 26.361 12.9447 25.6791 12.9447C24.9972 12.9447 24.4446 12.3933 24.4446 11.7132C24.4446 11.0332 24.9972 10.4819 25.6791 10.4819C26.361 10.4819 26.9137 11.0332 26.9137 11.7132ZM28.7655 14.1451C29.4473 14.1451 30.0001 13.5938 30.0001 12.9138C30.0001 12.2337 29.4473 11.6824 28.7655 11.6824C28.0837 11.6824 27.5309 12.2337 27.5309 12.9138C27.5309 13.5938 28.0837 14.1451 28.7655 14.1451ZM25.6168 14.8224C25.6168 15.4174 25.1332 15.8998 24.5366 15.8998C23.94 15.8998 23.4564 15.4174 23.4564 14.8224C23.4564 14.2273 23.94 13.7449 24.5366 13.7449C25.1332 13.7449 25.6168 14.2273 25.6168 14.8224ZM20.6791 15.3761C21.2757 15.3761 21.7593 14.8937 21.7593 14.2987C21.7593 13.7036 21.2757 13.2212 20.6791 13.2212C20.0825 13.2212 19.5989 13.7036 19.5989 14.2987C19.5989 14.8937 20.0825 15.3761 20.6791 15.3761ZM28.7344 16.0228C28.7344 16.6178 28.2508 17.1002 27.6542 17.1002C27.0576 17.1002 26.5739 16.6178 26.5739 16.0228C26.5739 15.4277 27.0576 14.9453 27.6542 14.9453C28.2508 14.9453 28.7344 15.4277 28.7344 16.0228ZM22.9937 18.1469C23.505 18.1469 23.9196 17.7334 23.9196 17.2234C23.9196 16.7133 23.505 16.2998 22.9937 16.2998C22.4823 16.2998 22.0678 16.7133 22.0678 17.2234C22.0678 17.7334 22.4823 18.1469 22.9937 18.1469ZM27.0372 18.3933C27.0372 18.9034 26.6226 19.3169 26.1112 19.3169C25.5999 19.3169 25.1853 18.9034 25.1853 18.3933C25.1853 17.8833 25.5999 17.4698 26.1112 17.4698C26.6226 17.4698 27.0372 17.8833 27.0372 18.3933ZM19.1664 17.5926C19.6777 17.5926 20.0923 17.1791 20.0923 16.6691C20.0923 16.159 19.6777 15.7455 19.1664 15.7455C18.655 15.7455 18.2404 16.159 18.2404 16.6691C18.2404 17.1791 18.655 17.5926 19.1664 17.5926ZM22.0677 18.886C22.0677 19.311 21.7222 19.6556 21.2961 19.6556C20.8699 19.6556 20.5244 19.311 20.5244 18.886C20.5244 18.4609 20.8699 18.1163 21.2961 18.1163C21.7222 18.1163 22.0677 18.4609 22.0677 18.886ZM22.6232 21.7797C22.9982 21.7797 23.3022 21.4765 23.3022 21.1025C23.3022 20.7285 22.9982 20.4253 22.6232 20.4253C22.2482 20.4253 21.9442 20.7285 21.9442 21.1025C21.9442 21.4765 22.2482 21.7797 22.6232 21.7797ZM21.543 21.6568C21.543 21.9628 21.2943 22.2109 20.9874 22.2109C20.6806 22.2109 20.4319 21.9628 20.4319 21.6568C20.4319 21.3507 20.6806 21.1027 20.9874 21.1027C21.2943 21.1027 21.543 21.3507 21.543 21.6568ZM19.5368 20.6098C19.9118 20.6098 20.2159 20.3066 20.2159 19.9326C20.2159 19.5585 19.9118 19.2553 19.5368 19.2553C19.1619 19.2553 18.8578 19.5585 18.8578 19.9326C18.8578 20.3066 19.1619 20.6098 19.5368 20.6098ZM18.2098 18.3627C18.2098 18.7877 17.8644 19.1323 17.4382 19.1323C17.0121 19.1323 16.6666 18.7877 16.6666 18.3627C16.6666 17.9376 17.0121 17.5931 17.4382 17.5931C17.8644 17.5931 18.2098 17.9376 18.2098 18.3627ZM17.4071 13.3443C17.8332 13.3443 18.1787 12.9998 18.1787 12.5747C18.1787 12.1496 17.8332 11.8051 17.4071 11.8051C16.9809 11.8051 16.6355 12.1496 16.6355 12.5747C16.6355 12.9998 16.9809 13.3443 17.4071 13.3443ZM18.4258 9.95815C18.4258 10.3322 18.1218 10.6354 17.7468 10.6354C17.3718 10.6354 17.0678 10.3322 17.0678 9.95815C17.0678 9.58416 17.3718 9.28088 17.7468 9.28088C18.1218 9.28088 18.4258 9.58416 18.4258 9.95815ZM18.4873 8.41895C18.7942 8.41895 19.0429 8.17085 19.0429 7.86477C19.0429 7.55875 18.7942 7.31066 18.4873 7.31066C18.1805 7.31066 17.9318 7.55875 17.9318 7.86477C17.9318 8.17085 18.1805 8.41895 18.4873 8.41895ZM17.8702 6.69526C17.8702 7.06932 17.5662 7.37253 17.1912 7.37253C16.8162 7.37253 16.5122 7.06932 16.5122 6.69526C16.5122 6.32127 16.8162 6.01799 17.1912 6.01799C17.5662 6.01799 17.8702 6.32127 17.8702 6.69526ZM24.3824 20.8251C24.8085 20.8251 25.154 20.4805 25.154 20.0555C25.154 19.6305 24.8085 19.2859 24.3824 19.2859C23.9563 19.2859 23.6108 19.6305 23.6108 20.0555C23.6108 20.4805 23.9563 20.8251 24.3824 20.8251ZM16.2035 5.71007C16.2035 6.13507 15.858 6.47963 15.4319 6.47963C15.0058 6.47963 14.6603 6.13507 14.6603 5.71007C14.6603 5.28501 15.0058 4.94045 15.4319 4.94045C15.858 4.94045 16.2035 5.28501 16.2035 5.71007ZM15.9568 9.74302C16.3829 9.74302 16.7284 9.39847 16.7284 8.9734C16.7284 8.54834 16.3829 8.20378 15.9568 8.20378C15.5306 8.20378 15.1852 8.54834 15.1852 8.9734C15.1852 9.39847 15.5306 9.74302 15.9568 9.74302ZM16.0187 11.9283C16.0187 12.4384 15.6041 12.8519 15.0928 12.8519C14.5814 12.8519 14.1668 12.4384 14.1668 11.9283C14.1668 11.4183 14.5814 11.0048 15.0928 11.0048C15.6041 11.0048 16.0187 11.4183 16.0187 11.9283ZM12.2838 12.8519C12.8805 12.8519 13.3641 12.3694 13.3641 11.7744C13.3641 11.1793 12.8805 10.697 12.2838 10.697C11.6873 10.697 11.2036 11.1793 11.2036 11.7744C11.2036 12.3694 11.6873 12.8519 12.2838 12.8519ZM10.2471 12.3596C10.2471 13.0397 9.69433 13.591 9.01247 13.591C8.33068 13.591 7.77794 13.0397 7.77794 12.3596C7.77794 11.6796 8.33068 11.1283 9.01247 11.1283C9.69433 11.1283 10.2471 11.6796 10.2471 12.3596ZM5.43213 15.346C6.23331 15.346 6.88279 14.6982 6.88279 13.8991C6.88279 13.1001 6.23331 12.4522 5.43213 12.4522C4.63102 12.4522 3.98155 13.1001 3.98155 13.8991C3.98155 14.6982 4.63102 15.346 5.43213 15.346ZM3.45672 16.5771C3.45672 17.5292 2.68293 18.301 1.72833 18.301C0.773798 18.301 0 17.5292 0 16.5771C0 15.625 0.773798 14.8531 1.72833 14.8531C2.68293 14.8531 3.45672 15.625 3.45672 16.5771ZM3.98167 11.7438C4.78285 11.7438 5.43225 11.096 5.43225 10.2969C5.43225 9.49781 4.78285 8.85004 3.98167 8.85004C3.18049 8.85004 2.53108 9.49781 2.53108 10.2969C2.53108 11.096 3.18049 11.7438 3.98167 11.7438ZM8.79602 8.7576C8.79602 9.43768 8.24328 9.98899 7.56142 9.98899C6.87963 9.98899 6.32689 9.43768 6.32689 8.7576C6.32689 8.07753 6.87963 7.52622 7.56142 7.52622C8.24328 7.52622 8.79602 8.07753 8.79602 8.7576ZM7.03691 6.7258C7.71876 6.7258 8.27144 6.1745 8.27144 5.49442C8.27144 4.81434 7.71876 4.26304 7.03691 4.26304C6.35505 4.26304 5.80231 4.81434 5.80231 5.49442C5.80231 6.1745 6.35505 6.7258 7.03691 6.7258ZM11.3887 4.90961C11.3887 5.50473 10.9051 5.9871 10.3085 5.9871C9.71186 5.9871 9.22826 5.50473 9.22826 4.90961C9.22826 4.31456 9.71186 3.8322 10.3085 3.8322C10.9051 3.8322 11.3887 4.31456 11.3887 4.90961ZM13.117 5.98708C13.6284 5.98708 14.0429 5.57359 14.0429 5.06356C14.0429 4.55354 13.6284 4.14005 13.117 4.14005C12.6056 4.14005 12.1911 4.55354 12.1911 5.06356C12.1911 5.57359 12.6056 5.98708 13.117 5.98708ZM14.5677 8.32646C14.5677 8.83655 14.1531 9.24998 13.6417 9.24998C13.1304 9.24998 12.7158 8.83655 12.7158 8.32646C12.7158 7.81643 13.1304 7.40294 13.6417 7.40294C14.1531 7.40294 14.5677 7.81643 14.5677 8.32646ZM10.8334 9.28121C11.43 9.28121 11.9136 8.79878 11.9136 8.20373C11.9136 7.60868 11.43 7.12624 10.8334 7.12624C10.2367 7.12624 9.75314 7.60868 9.75314 8.20373C9.75314 8.79878 10.2367 9.28121 10.8334 9.28121ZM8.33316 16.9155C8.33316 17.2216 8.08445 17.4697 7.77761 17.4697C7.47078 17.4697 7.22206 17.2216 7.22206 16.9155C7.22206 16.6095 7.47078 16.3614 7.77761 16.3614C8.08445 16.3614 8.33316 16.6095 8.33316 16.9155ZM10 17.1927C10.3751 17.1927 10.679 16.8895 10.679 16.5155C10.679 16.1415 10.3751 15.8383 10 15.8383C9.62501 15.8383 9.32098 16.1415 9.32098 16.5155C9.32098 16.8895 9.62501 17.1927 10 17.1927ZM13.2096 15.4999C13.2096 15.9249 12.8642 16.2695 12.4381 16.2695C12.0119 16.2695 11.6665 15.9249 11.6665 15.4999C11.6665 15.0749 12.0119 14.7303 12.4381 14.7303C12.8642 14.7303 13.2096 15.0749 13.2096 15.4999ZM13.0243 18.732C13.5356 18.732 13.9502 18.3186 13.9502 17.8085C13.9502 17.2984 13.5356 16.8849 13.0243 16.8849C12.5129 16.8849 12.0983 17.2984 12.0983 17.8085C12.0983 18.3186 12.5129 18.732 13.0243 18.732ZM10.8333 18.5471C10.8333 18.9721 10.4879 19.3167 10.0617 19.3167C9.63557 19.3167 9.29013 18.9721 9.29013 18.5471C9.29013 18.122 9.63557 17.7775 10.0617 17.7775C10.4879 17.7775 10.8333 18.122 10.8333 18.5471ZM7.43803 19.2859C7.81305 19.2859 8.11708 18.9827 8.11708 18.6086C8.11708 18.2346 7.81305 17.9313 7.43803 17.9313C7.06308 17.9313 6.75905 18.2346 6.75905 18.6086C6.75905 18.9827 7.06308 19.2859 7.43803 19.2859ZM8.2404 20.6406C8.2404 21.0657 7.89495 21.4102 7.46879 21.4102C7.04263 21.4102 6.69719 21.0657 6.69719 20.6406C6.69719 20.2155 7.04263 19.871 7.46879 19.871C7.89495 19.871 8.2404 20.2155 8.2404 20.6406ZM10.6172 21.8103C11.1286 21.8103 11.5431 21.3968 11.5431 20.8868C11.5431 20.3767 11.1286 19.9633 10.6172 19.9633C10.1058 19.9633 9.69128 20.3767 9.69128 20.8868C9.69128 21.3968 10.1058 21.8103 10.6172 21.8103ZM15.3703 20.3327C15.3703 20.9278 14.8867 21.4102 14.29 21.4102C13.6935 21.4102 13.2098 20.9278 13.2098 20.3327C13.2098 19.7377 13.6935 19.2553 14.29 19.2553C14.8867 19.2553 15.3703 19.7377 15.3703 20.3327ZM16.4505 24.0882C17.1323 24.0882 17.685 23.5368 17.685 22.8567C17.685 22.1767 17.1323 21.6254 16.4505 21.6254C15.7686 21.6254 15.2159 22.1767 15.2159 22.8567C15.2159 23.5368 15.7686 24.0882 16.4505 24.0882ZM12.9937 23.3805C12.9937 23.9756 12.51 24.458 11.9134 24.458C11.3168 24.458 10.8332 23.9756 10.8332 23.3805C10.8332 22.7854 11.3168 22.3031 11.9134 22.3031C12.51 22.3031 12.9937 22.7854 12.9937 23.3805ZM9.35152 26.5511C9.94808 26.5511 10.4317 26.0687 10.4317 25.4736C10.4317 24.8786 9.94808 24.3961 9.35152 24.3961C8.7549 24.3961 8.27123 24.8786 8.27123 25.4736C8.27123 26.0687 8.7549 26.5511 9.35152 26.5511ZM12.7157 28.0289C12.7157 28.7089 12.163 29.2603 11.4811 29.2603C10.7993 29.2603 10.2466 28.7089 10.2466 28.0289C10.2466 27.3488 10.7993 26.7975 11.4811 26.7975C12.163 26.7975 12.7157 27.3488 12.7157 28.0289ZM17.1605 29.7531C17.9617 29.7531 18.6111 29.1053 18.6111 28.3062C18.6111 27.5071 17.9617 26.8594 17.1605 26.8594C16.3594 26.8594 15.7099 27.5071 15.7099 28.3062C15.7099 29.1053 16.3594 29.7531 17.1605 29.7531ZM15.2775 25.9355C15.2775 26.6156 14.7247 27.1669 14.0429 27.1669C13.3611 27.1669 12.8084 26.6156 12.8084 25.9355C12.8084 25.2554 13.3611 24.7041 14.0429 24.7041C14.7247 24.7041 15.2775 25.2554 15.2775 25.9355ZM19.5369 26.6746C20.338 26.6746 20.9875 26.0268 20.9875 25.2277C20.9875 24.4286 20.338 23.7809 19.5369 23.7809C18.7357 23.7809 18.0862 24.4286 18.0862 25.2277C18.0862 26.0268 18.7357 26.6746 19.5369 26.6746ZM8.98117 22.9803C8.98117 23.4903 8.56665 23.9038 8.05526 23.9038C7.54393 23.9038 7.12934 23.4903 7.12934 22.9803C7.12934 22.4702 7.54393 22.0568 8.05526 22.0568C8.56665 22.0568 8.98117 22.4702 8.98117 22.9803Z" fill="black"/>
</g>
<defs>
<clipPath id="clip0_11324_7557">
<rect width="30" height="30" fill="white"/>
</clipPath>
</defs>
</svg>

<svg xmlns="http://www.w3.org/2000/svg" fill="none" viewBox="0 0 30 30">
  <g clip-path="url(#iota-evm-icon-light_svg__a)">
    <path fill="#000" fill-rule="evenodd" d="M23.55 2.724c0 .952-.775 1.724-1.73 1.724a1.726 1.726 0 0 1-1.728-1.724c0-.952.774-1.724 1.729-1.724.954 0 1.728.772 1.728 1.724Zm1.944 24.35c0 .953-.774 1.725-1.729 1.725a1.726 1.726 0 0 1-1.728-1.724c0-.952.774-1.724 1.728-1.724.955 0 1.729.772 1.729 1.724Zm-3.18-18.316c.802 0 1.451-.648 1.451-1.447 0-.8-.65-1.447-1.45-1.447-.802 0-1.451.648-1.451 1.447s.65 1.447 1.45 1.447Zm5.31-.893c0 .8-.65 1.447-1.451 1.447s-1.45-.648-1.45-1.447c0-.8.649-1.447 1.45-1.447.801 0 1.45.648 1.45 1.447Zm-5.803 4.556a1.232 1.232 0 1 0 0-2.463 1.233 1.233 0 1 0 0 2.463Zm5.093-.708c0 .68-.553 1.232-1.235 1.232a1.233 1.233 0 0 1-1.234-1.232c0-.68.552-1.231 1.234-1.231.682 0 1.235.551 1.235 1.231Zm1.851 2.432c.682 0 1.235-.551 1.235-1.231a1.234 1.234 0 0 0-2.469 0c0 .68.553 1.231 1.235 1.231Zm-3.148.677a1.08 1.08 0 0 1-1.08 1.078 1.079 1.079 0 1 1 0-2.155c.596 0 1.08.482 1.08 1.077Zm-4.938.554a1.078 1.078 0 1 0 0-2.155 1.079 1.079 0 1 0 0 2.155Zm8.055.647c0 .595-.483 1.077-1.08 1.077a1.079 1.079 0 1 1 0-2.155c.597 0 1.08.483 1.08 1.078Zm-5.74 2.124a.925.925 0 1 0-.926-.924c0 .51.414.924.926.924Zm4.043.246c0 .51-.414.924-.926.924a.925.925 0 1 1 .926-.924Zm-7.87-.8a.925.925 0 1 0-.927-.924c0 .51.415.924.926.924Zm2.9 1.293a.77.77 0 1 1-1.54-.002.77.77 0 0 1 1.54.002Zm.556 2.894a.678.678 0 1 0 .002-1.357.678.678 0 0 0-.002 1.357Zm-1.08-.123a.555.555 0 1 1-1.11-.002.555.555 0 0 1 1.11.002Zm-2.006-1.047a.678.678 0 1 0 .002-1.357.678.678 0 0 0-.002 1.357Zm-1.327-2.247a.77.77 0 1 1-1.541-.002.77.77 0 0 1 1.54.002Zm-.803-5.019a.77.77 0 1 0 .002-1.54.77.77 0 0 0-.002 1.54Zm1.019-3.386a.678.678 0 1 1-1.356-.002.678.678 0 0 1 1.356.002Zm.061-1.539a.555.555 0 1 0 .002-1.11.555.555 0 0 0-.002 1.11Zm-.617-1.724a.678.678 0 1 1-1.356-.001.678.678 0 0 1 1.356.001Zm6.512 14.13a.77.77 0 1 0 .002-1.541.77.77 0 0 0-.002 1.541ZM16.203 5.71a.77.77 0 1 1-1.54-.002.77.77 0 0 1 1.54.002Zm-.246 4.033a.77.77 0 1 0 .002-1.541.77.77 0 0 0-.002 1.541Zm.062 2.185a.925.925 0 0 1-1.852 0c0-.51.414-.923.926-.923.511 0 .926.413.926.923Zm-3.735.924a1.079 1.079 0 1 0 0-2.155 1.078 1.078 0 1 0 0 2.155Zm-2.037-.492c0 .68-.553 1.231-1.235 1.231a1.233 1.233 0 0 1-1.234-1.231 1.234 1.234 0 0 1 2.469 0Zm-4.815 2.986c.801 0 1.45-.648 1.45-1.447s-.649-1.447-1.45-1.447a1.448 1.448 0 1 0 0 2.894Zm-1.975 1.231c0 .952-.774 1.724-1.729 1.724A1.726 1.726 0 0 1 0 16.577c0-.952.774-1.724 1.728-1.724.955 0 1.729.772 1.729 1.724Zm.525-4.833c.8 0 1.45-.648 1.45-1.447 0-.8-.65-1.447-1.45-1.447a1.448 1.448 0 1 0 0 2.894Zm4.814-2.986c0 .68-.553 1.231-1.235 1.231a1.233 1.233 0 0 1-1.234-1.231 1.234 1.234 0 0 1 2.469 0Zm-1.76-2.032a1.233 1.233 0 1 0 0-2.463c-.681 0-1.234.551-1.234 1.231s.553 1.232 1.235 1.232ZM11.39 4.91c0 .595-.484 1.077-1.08 1.077a1.078 1.078 0 1 1 0-2.155c.596 0 1.08.483 1.08 1.078Zm1.728 1.077a.925.925 0 1 0-.926-.923c0 .51.415.923.926.923Zm1.45 2.34a.925.925 0 1 1-1.854-.002.925.925 0 0 1 1.855.001Zm-3.734.954a1.078 1.078 0 1 0 0-2.155 1.079 1.079 0 1 0 0 2.155Zm-2.5 7.635a.555.555 0 1 1-1.11-.002.555.555 0 0 1 1.11.002Zm1.667.277a.678.678 0 1 0 .002-1.356.678.678 0 0 0-.002 1.356Zm3.21-1.693a.77.77 0 1 1-1.542-.002.77.77 0 0 1 1.542.002Zm-.186 3.232a.925.925 0 1 0 0-1.847.925.925 0 1 0 0 1.847Zm-2.19-.185a.77.77 0 1 1-1.542-.002.77.77 0 0 1 1.541.002Zm-3.396.739a.678.678 0 1 0 .002-1.356.678.678 0 0 0-.002 1.356Zm.802 1.355a.77.77 0 1 1-1.54-.002.77.77 0 0 1 1.54.002Zm2.377 1.17a.925.925 0 1 0-.926-.924c0 .51.415.923.926.923Zm4.753-1.478c0 .595-.483 1.077-1.08 1.077a1.079 1.079 0 1 1 0-2.155c.597 0 1.08.483 1.08 1.078Zm1.08 3.755c.682 0 1.235-.551 1.235-1.231a1.234 1.234 0 0 0-2.469 0c0 .68.553 1.231 1.235 1.231Zm-3.456-.707c0 .595-.484 1.077-1.08 1.077a1.078 1.078 0 1 1 0-2.155c.596 0 1.08.482 1.08 1.078Zm-3.642 3.17a1.079 1.079 0 1 0 0-2.155 1.079 1.079 0 1 0 0 2.155Zm3.364 1.478c0 .68-.553 1.231-1.235 1.231a1.233 1.233 0 0 1-1.234-1.231 1.234 1.234 0 0 1 2.469 0Zm4.444 1.724c.802 0 1.451-.648 1.451-1.447s-.65-1.447-1.45-1.447c-.802 0-1.451.648-1.451 1.447 0 .8.65 1.447 1.45 1.447Zm-1.883-3.817c0 .68-.552 1.23-1.234 1.23a1.233 1.233 0 0 1-1.235-1.23c0-.68.553-1.232 1.235-1.232s1.235.551 1.235 1.232Zm4.26.739a1.448 1.448 0 1 0 0-2.894c-.801 0-1.45.648-1.45 1.447s.649 1.447 1.45 1.447ZM8.98 22.98c0 .51-.414.924-.926.924a.925.925 0 1 1 0-1.847c.512 0 .926.413.926.923Z" clip-rule="evenodd"/>
  </g>
  <defs>
    <clipPath id="iota-evm-icon-light_svg__a">
      <path fill="#fff" d="M0 0h30v30H0z"/>
    </clipPath>
  </defs>
</svg>
